X:1
T:Title
%%score ( 1 2 ) { 3 | 4 }
L:1/8
Q:1/4=102
M:4/4
K:Ab
V:1 treble nm="Grand Piano, Unnamed-000"
V:2 treble 
V:3 treble nm="Choir Pad, Ebenezer (Ton-y-Botel)"
V:4 bass 
V:1
 [CF]2 (3FGA [=EG]2 F2 | [FG]2 (3GAB [FA]>G [CF]2 | [Cc]2 (3Bc[Fd] [Gc]>B [FA]2 | %3
w: By~Thomas~John~Williams,~1890 * * * * *|||
 [FB]>A [=EG]2 F4 | [CF]2 (3[C-F][C-G][CA] [=EG]2 F2 | [FG]2 (3GAB [FA]>G [CF]2 | %6
w: |||
 [Cc]2 (3Bc[Fd] [Gc]>B [FA]2 | [FB]>A [=EG]2 F4 | [Ec]2 (3ABc [EB]2 [EB]2 | %9
w: |||
 [CA]2 (3F-[FG]A [FG]2 G2 | F2 (3FGA [FB]2 [EB]2 | [CA]2 (3BAB [=Ec]4 | %12
w: |||
 [A,F]2 (3F-[FG]A [=EG]2 F2 | [FG]2 (3GAB [FA]>G F2 | [Ec]2 (3Bcd [Ec]>B [FA]2 | %15
w: |||
 [FB]>A [=EG]2 F4- | F4 z4 |] %17
w: ||
V:2
 z2 C2 z4 | z2 =E2 z4 | z2 E2 z4 | x8 | x8 | z2 =E2 z4 | z2 E2 z4 | x8 | z2 E2 z4 | x8 | z2 C2 z4 | %11
 z2 F2 z4 | x8 | z2 =E2 z4 | z2 E2 z4 | x8 | x8 |] %17
V:3
 A,2 C2 C2 A,2 | D2 C2 C>[K:bass]B, A,2 | E2 B,B,[K:treble] C2 C2 | D>C B,2[K:bass] A,4 | %4
 A,2 C2 C2 A,2 | D2 C2 C>B, A,2 | E2 (3:2:2B,2 A, C2 C2 | D>C[K:bass] B,2 A,4 | A,2 A,2 A,2 G,2 | %9
 A,2 C2 C2 C2 | F,2 A,2 A,2 G,2 | A,2 F,2 G,4 | F,2[K:treble] C2 C2 A,2 | D2 C2 C>[K:bass]B, A,2 | %14
 A,2 (3G,A,B, A,>G, F,2 | D>C B,2 A,4- | A,4 z4 |] %17
V:4
 F,,2 A,,2 C,2 D,2 | B,,2 C,2 F,2 F,2 | A,2 G,G, =E,2 F,2 | B,,2 C,2 F,4 | F,,2 A,,2 C,2 D,2 | %5
 B,,2 C,2 F,2 F,2 | A,2 (3:2:2G,2 F, =E,2 F,2 | B,,2 C,2 F,4 | A,,2 C,2 E,2 E,2 | %9
 F,2 A,,2 C,2 C,2 | z2 E,2 D,2 E,2 | F,E, D,2 C,4 | D,2 A,,2 C,2 D,2 | B,,2 C,2 F,2 F,2 | %14
 z2 E,2 A,,2 D,2 | B,,2 C,2 F,4- | F,4 z4 |] %17

